X: 34
T:Corris' Whim
M:C|
L:1/8
Q:180
C:Trad
S:Blodau'r Grug Collection Vol. 3
A:Wales
Z:brian_martin12345@yahoo.com
K:G
g2 dB BdBG|AcFA GFED|g2dc B/c/d BG|Ac DF G2G,2:||
B,DGD CEGE|DFAc B/c/d BG|B,DGD CEGE|F/G/A FD {F}G2 Gg|
f/g/afd g/a/bge|agfe cABg|f/g/afd gefd|fage g2g2||

